X:1
T:My Father's Old Sou'wester
M:6/8
L:1/4
K:C
 G/2| E D/2 C3/2-| C/2G/2 G/2 A A/2| D3/2- D E/2| F D/2 C B,/2| C3/2 z/2 G/2G/2|\
 c B/2 A G/2| A3/2 D E/2| F G/2 B A/2| G3| z z/2 A B/2| c3/2- c B/2|\
 A G/2 A F/2| D3/2- D E/2| F/2F/2G/2 B A/2| G3/2- G F/2| E D/2 C3/2-|\
 C G/2 A F/2| D3/2- D E/2| F D/2 C B,/2| C3/2 z||
